X:191
T: ES WAR EINE STOLZE JUEDIN
N: E0098D
O: Europa, Mitteleuropa, Deutschland, Hildburghausen
R: erzaehlendes Volks - Lied, Sage, Liebe, Leid
M: 4/4
L: 1/8
K: F
C2 | F2A2c2G2 | A2GFF2
f2 | e3de2d2 | c4z2
c2 | c2A2c2f2 | d4d2
d2 | d2d2fed2 | c4A2
c2 | c2A2B2c2 | A4z2

